Papirus/64x64/apps/broforce.svg

<svg width="64" height="64" version="1.1" xmlns="http://www.w3.org/2000/svg">
 <ellipse cx="32" cy="33" rx="28" ry="25" style="opacity:.2"/>
 <ellipse cx="32" cy="32" rx="28" ry="25" style="fill:#356376"/>
 <path d="M 32 7 A 28 25 0 0 0 4 32 A 28 25 0 0 0 4.0234375 32.585938 A 28 25 0 0 1 32 8 A 28 25 0 0 1 59.976562 32.414062 A 28 25 0 0 0 60 32 A 28 25 0 0 0 32 7 z " style="fill:#ffffff;opacity:.1"/>
 <ellipse cx="32" cy="32" rx="17" ry="14" style="opacity:.2"/>
 <ellipse cx="32" cy="31" rx="17" ry="14" style="fill:#3786a6"/>
 <path d="m32 7-6 12h-22l16 13-10 21 22-11 22 11-10-21 16-13h-22z" style="opacity:.2"/>
 <path d="m32 6-6 12h-22l16 13-10 21 22-11 22 11-10-21 16-13h-22z" style="fill:#4da2c4"/>
 <path d="m10 52 22-28 22 28-22-11z" style="fill:#b04f08;opacity:.5"/>
 <path d="m32 24-28-6 16 13z" style="fill:#b04f08;opacity:.5"/>
 <path d="m32 24 28-6-16 13z" style="fill:#b04f08;opacity:.5"/>
 <path d="m32 24v-18l-6 12z" style="fill:#b3d1ca"/>
 <path d="m32 6-6 12h-22l1.2304688 1h20.769531l6-12 6 12h20.769531l1.230469-1h-22l-6-12zm-12.34375 25.720703-9.65625 20.279297 0.625-0.3125 9.375-19.6875-0.34375-0.279297zm24.6875 0-0.34375 0.279297 9.375 19.6875 0.625 0.3125-9.65625-20.279297z" style="fill:#ffffff;opacity:.2"/>
</svg>

<?xml version="1.0" encoding="UTF-8" standalone="no"?>
<svg
   id="_图层_1"
   version="1.1"
   viewBox="0 0 64 64" width="64" height="64"
   sodipodi:docname="broforce.svg"
   xml:space="preserve"
   inkscape:version="1.4 (e7c3feb100, 2024-10-09)"
   xmlns:inkscape="http://www.inkscape.org/namespaces/inkscape"
   xmlns:sodipodi="http://sodipodi.sourceforge.net/DTD/sodipodi-0.dtd"
   xmlns="http://www.w3.org/2000/svg"
   xmlns:svg="http://www.w3.org/2000/svg"><sodipodi:namedview
     id="namedview26"
     pagecolor="#505050"
     bordercolor="#eeeeee"
     borderopacity="1"
     inkscape:showpageshadow="0"
     inkscape:pageopacity="0"
     inkscape:pagecheckerboard="0"
     inkscape:deskcolor="#505050"
     inkscape:zoom="10.6875"
     inkscape:cx="32"
     inkscape:cy="28.912281"
     inkscape:window-width="1920"
     inkscape:window-height="939"
     inkscape:window-x="0"
     inkscape:window-y="34"
     inkscape:window-maximized="1"
     inkscape:current-layer="_图层_1" /><!-- Generator: Adobe Illustrator 29.0.1, SVG Export Plug-In . SVG Version: 2.1.0 Build 192)  --><defs
     id="defs6"><style
       id="style1">
      .st0 {
        fill-opacity: .5;
      }

      .st0, .st1, .st2, .st3, .st4, .st5, .st6, .st7 {
        fill: #fff;
      }

      .st8 {
        fill: #133c9a;
      }

      .st2, .st9 {
        display: none;
      }

      .st3 {
        fill-opacity: .2;
      }

      .st4 {
        fill-opacity: .9;
      }

      .st10 {
        fill: #3370ff;
      }

      .st11 {
        fill: url(#_未命名的渐变_3);
      }

      .st12 {
        fill: url(#_未命名的渐变);
      }

      .st5 {
        fill-opacity: .3;
      }

      .st6 {
        fill-opacity: 0;
      }

      .st7 {
        fill-opacity: .7;
      }

      .st13 {
        fill: #00d6b9;
      }

      .st14 {
        fill: url(#_未命名的渐变_2);
      }
    </style><radialGradient
       id="_未命名的渐变"
       data-name="未命名的渐变"
       cx="123.9"
       cy="-40.2"
       fx="123.9"
       fy="-40.2"
       r="59.4"
       gradientTransform="translate(-26.8 25.5) scale(.6 -.7)"
       gradientUnits="userSpaceOnUse"><stop
         offset="0"
         stop-color="#db202e"
         id="stop1" /><stop
         offset="1"
         stop-color="#e01b24"
         id="stop2" /></radialGradient><radialGradient
       id="_未命名的渐变_2"
       data-name="未命名的渐变 2"
       cx="67.6"
       cy="26.8"
       fx="67.6"
       fy="26.8"
       r="105.2"
       gradientTransform="translate(-26.6 25.3) scale(.6 -.7)"
       gradientUnits="userSpaceOnUse"><stop
         offset="0"
         stop-color="#ffb648"
         id="stop3" /><stop
         offset="1"
         stop-color="#ff7800"
         stop-opacity="0"
         id="stop4" /></radialGradient><radialGradient
       id="_未命名的渐变_3"
       data-name="未命名的渐变 3"
       cx="61.7"
       cy="18.6"
       fx="61.7"
       fy="18.6"
       r="68"
       gradientTransform="translate(-26.8 25.8) scale(.6 -.7)"
       gradientUnits="userSpaceOnUse"><stop
         offset="0"
         stop-color="#c64600"
         id="stop5" /><stop
         offset="1"
         stop-color="#a51d2d"
         id="stop6" /></radialGradient><style
       id="style1-2">
      .st0, .st1, .st2, .st3, .st4, .st5 {
        isolation: isolate;
      }

      .st0, .st1, .st6, .st7, .st5, .st8 {
        display: none;
      }

      .st0, .st3, .st4, .st5 {
        opacity: .2;
      }

      .st1 {
        opacity: .1;
      }

      .st1, .st9, .st2, .st4, .st5 {
        fill: #fff;
      }

      .st10 {
        fill: #3f3f3f;
      }

      .st2 {
        opacity: .3;
      }

      .st6 {
        fill: #505d6e;
      }

      .st11, .st8 {
        fill: #ffcca3;
      }

      .st12 {
        fill: #fed24c;
      }

      .st13 {
        fill: #c2352a;
      }
    </style></defs><path
     class="st1"
     d="M 47.5,64.1 H 13.8 C 6.2,64.1 0,57.8 0,50.3 V 13.7 C 0,6.2 6.2,0 13.7,0 H 50.3 C 57.8,0 64,6.2 64,13.7 V 50.3 C 64,57.8 57.8,64 50.3,64 h -2.9 0.1 z"
     id="path6"
     style="display:inline;opacity:1;fill:#424242;fill-opacity:1" /><g
     id="g27"
     transform="matrix(0.87301587,0,0,0.92982456,3.6892231,2.380117)"><ellipse
       cx="32"
       cy="33"
       rx="28"
       ry="25"
       style="opacity:0.2"
       id="ellipse1" /><ellipse
       cx="32"
       cy="32"
       rx="28"
       ry="25"
       style="fill:#356376"
       id="ellipse2" /><path
       d="M 32,7 A 28,25 0 0 0 4,32 28,25 0 0 0 4.0234375,32.585938 28,25 0 0 1 32,8 28,25 0 0 1 59.976562,32.414062 28,25 0 0 0 60,32 28,25 0 0 0 32,7 Z"
       style="opacity:0.1;fill:#ffffff"
       id="path2" /><ellipse
       cx="32"
       cy="32"
       rx="17"
       ry="14"
       style="opacity:0.2"
       id="ellipse3" /><ellipse
       cx="32"
       cy="31"
       rx="17"
       ry="14"
       style="fill:#3786a6"
       id="ellipse4" /><path
       d="M 32,7 26,19 H 4 L 20,32 10,53 32,42 54,53 44,32 60,19 H 38 Z"
       style="opacity:0.2"
       id="path4" /><path
       d="M 32,6 26,18 H 4 L 20,31 10,52 32,41 54,52 44,31 60,18 H 38 Z"
       style="fill:#4da2c4"
       id="path5" /><path
       d="M 10,52 32,24 54,52 32,41 Z"
       style="opacity:0.5;fill:#b04f08"
       id="path6-4" /><path
       d="M 32,24 4,18 20,31 Z"
       style="opacity:0.5;fill:#b04f08"
       id="path7" /><path
       d="M 32,24 60,18 44,31 Z"
       style="opacity:0.5;fill:#b04f08"
       id="path8" /><path
       d="M 32,24 V 6 l -6,12 z"
       style="fill:#b3d1ca"
       id="path9" /><path
       d="M 32,6 26,18 H 4 l 1.2304688,1 H 26 L 32,7 38,19 H 58.769531 L 60,18 H 38 Z M 19.65625,31.720703 10,52 10.625,51.6875 20,32 Z m 24.6875,0 L 44,32 53.375,51.6875 54,52 Z"
       style="opacity:0.2;fill:#ffffff"
       id="path10" /></g></svg>
